src/Icons/Drop.svg

<?xml version="1.0" encoding="iso-8859-1"?>
<!-- Generator: Adobe Illustrator 19.0.0, SVG Export Plug-In . SVG Version: 6.00 Build 0)  -->
<svg version="1.1" id="Layer_1" xmlns="http://www.w3.org/2000/svg" xmlns:xlink="http://www.w3.org/1999/xlink" x="0px" y="0px"
	 viewBox="0 0 512 512" style="enable-background:new 0 0 512 512;" xml:space="preserve">
<g>
	<g>
		<path d="M353.613,133.606c-39.327-66.81-77.99-121.944-79.618-124.258C269.876,3.487,263.163,0,256.001,0
			c-7.163,0-13.875,3.487-17.994,9.347c-1.626,2.314-40.291,57.448-79.618,124.258C103.415,226.999,76.69,292.12,76.69,332.691
			C76.69,431.563,157.128,512,256.001,512S435.31,431.563,435.31,332.691C435.31,292.12,408.587,226.997,353.613,133.606z
			 M256.001,468.012c-74.616,0-135.323-60.705-135.323-135.321c0-57.658,85.693-197.636,135.324-271.762
			c49.63,74.111,135.32,214.066,135.32,271.762C391.322,407.308,330.617,468.012,256.001,468.012z"/>
	</g>
</g>
<g>
	<g>
		<path d="M200.752,381.408c-11.859-13.43-18.409-30.655-18.454-48.529c0.081-1.116,1.501-16.641,19.658-56.458
			c5.04-11.053,0.166-24.098-10.887-29.138c-11.05-5.039-24.098-0.166-29.136,10.887c-21.322,46.758-23.623,67.691-23.623,74.521
			c0,28.673,10.466,56.313,29.469,77.833c4.347,4.922,10.406,7.435,16.495,7.435c5.173,0,10.366-1.814,14.55-5.509
			C207.929,404.412,208.792,390.513,200.752,381.408z"/>
	</g>
</g>
<g>
</g>
<g>
</g>
<g>
</g>
<g>
</g>
<g>
</g>
<g>
</g>
<g>
</g>
<g>
</g>
<g>
</g>
<g>
</g>
<g>
</g>
<g>
</g>
<g>
</g>
<g>
</g>
<g>
</g>
</svg>

<?xml version="1.0" encoding="UTF-8" standalone="no"?>
<!DOCTYPE svg PUBLIC "-//W3C//DTD SVG 1.1//EN" "http://www.w3.org/Graphics/SVG/1.1/DTD/svg11.dtd">
<svg width="100%" height="100%" viewBox="0 0 512 512" version="1.1" xmlns="http://www.w3.org/2000/svg" xmlns:xlink="http://www.w3.org/1999/xlink" xml:space="preserve" xmlns:serif="http://www.serif.com/" style="fill-rule:evenodd;clip-rule:evenodd;stroke-linejoin:round;stroke-miterlimit:1.41421;">
    <path d="M353.613,133.606C314.286,66.796 275.623,11.662 273.995,9.348C269.876,3.487 263.163,0 256.001,0C248.838,0 242.126,3.487 238.007,9.347C236.381,11.661 197.716,66.795 158.389,133.605C103.415,226.999 76.69,292.12 76.69,332.691C76.69,431.563 157.128,512 256.001,512C354.874,512 435.31,431.563 435.31,332.691C435.31,292.12 408.587,226.997 353.613,133.606ZM256.001,468.012C181.385,468.012 120.678,407.307 120.678,332.691C120.678,275.033 206.371,135.055 256.002,60.929C305.632,135.04 391.322,274.995 391.322,332.691C391.322,407.308 330.617,468.012 256.001,468.012Z" style="fill:rgb(154,154,154);fill-rule:nonzero;"/>
    <path d="M200.752,381.408C188.893,367.978 182.343,350.753 182.298,332.879C182.379,331.763 183.799,316.238 201.956,276.421C206.996,265.368 202.122,252.323 191.069,247.283C180.019,242.244 166.971,247.117 161.933,258.17C140.611,304.928 138.31,325.861 138.31,332.691C138.31,361.364 148.776,389.004 167.779,410.524C172.126,415.446 178.185,417.959 184.274,417.959C189.447,417.959 194.64,416.145 198.824,412.45C207.929,404.412 208.792,390.513 200.752,381.408Z" style="fill:rgb(154,154,154);fill-rule:nonzero;"/>
</svg>
